X: 1
T: Avant-deux des touches
O: Brittany
R: an dro
M: 2/4
L: 1/16
K: G
|: "G"D2D2 G2G2 | ~B2GB "D7"A4 | "D7"c2Ac "G"B2GB |1,3 "D7"~A2GA "G"B2G2 :|2,4 "D7"~A2GA "G"G4 :|
|: "G"G2GB d2d2 | "C"e2g2 "G"d4 | "D7"c2Ac "G"B2GB |1,3 "D7"A2GA "G"B2G2 :|2,4 "D7"[d2A2][eG][fA] "G"[g4G4] :|
